T: Song Of The Kelpie
M: 3/4
L: 1/8
K: Ddor
D3 F Ad|c3 de2|f3g f2|e4 dc|!d2 e2 d2|c2 A2 AG|G2 A2 c2|d4 e2||!D3 F Ad|c2 d2 e2|f3g f2|e4 dc|!d2 e2 d2|c2 A2 AG|G2 A2 c2|d4 e2|!fe de fe|fe de fe|fe de cA|e2 ag fe|]
